src/Eleven-Light/16/panel/battery-000-charging.svg

<?xml version="1.0" encoding="UTF-8" standalone="no"?>
<!-- Created with Inkscape (http://www.inkscape.org/) -->

<svg
   width="16"
   height="16"
   viewBox="0 0 16 16"
   version="1.1"
   id="svg5"
   sodipodi:docname="battery-000-charging.svg"
   inkscape:version="1.3.2 (091e20ef0f, 2023-11-25, custom)"
   xmlns:inkscape="http://www.inkscape.org/namespaces/inkscape"
   xmlns:sodipodi="http://sodipodi.sourceforge.net/DTD/sodipodi-0.dtd"
   xmlns="http://www.w3.org/2000/svg"
   xmlns:svg="http://www.w3.org/2000/svg">
  <sodipodi:namedview
     id="namedview7"
     pagecolor="#ffffff"
     bordercolor="#666666"
     borderopacity="1.0"
     inkscape:showpageshadow="2"
     inkscape:pageopacity="0.0"
     inkscape:pagecheckerboard="0"
     inkscape:deskcolor="#d1d1d1"
     inkscape:document-units="px"
     showgrid="false"
     inkscape:zoom="50.5625"
     inkscape:cx="7.9802225"
     inkscape:cy="7.9901112"
     inkscape:window-width="1920"
     inkscape:window-height="1008"
     inkscape:window-x="0"
     inkscape:window-y="0"
     inkscape:window-maximized="1"
     inkscape:current-layer="svg5"
     showguides="false" />
  <defs
     id="defs2">
    <style
       id="current-color-scheme"
       type="text/css">
   .ColorScheme-Text { color:#363636; } .ColorScheme-Highlight { color:#4285f4; } .ColorScheme-NeutralText { color:#ff9800; } .ColorScheme-PositiveText { color:#4caf50; } .ColorScheme-NegativeText { color:#f44336; }
   </style>
  </defs>
  <path
     id="path1017"
     style="fill:currentColor;fill-opacity:1"
     class="ColorScheme-Text"
     d="M 4.9980469,3 C 4.9986904,3.155098 4.9632515,3.3082213 4.8945312,3.4472656 L 4.6171875,4 H 12 c 0.553995,0 1,0.4460036 1,1 v 6 c 0,0.553994 -0.446005,1 -1,1 H 2 C 1.4460048,12 1,11.553994 1,11 V 7 5 H 0 v 6 c 0,1.107994 0.89200633,2 2,2 h 10 c 1.107994,0 2,-0.892006 2,-2 v -0.863281 c 1.107995,0 2,-0.8920062 2,-2.0000002 0,-1.1079945 -0.892005,-2.0000001 -2,-2 V 5 C 14,3.8920066 13.107994,3 12,3 Z" />
  <path
     d="M 2,0 0,4 H 2 V 7 L 4,3 H 2 Z"
     style="fill:currentColor;fill-opacity:1"
     class="ColorScheme-Text"
     id="path1" />
</svg>

<?xml version="1.0" encoding="UTF-8" standalone="no"?>
<!-- Created with Inkscape (http://www.inkscape.org/) -->

<svg
   width="16"
   height="16"
   viewBox="0 0 16 16"
   version="1.1"
   id="svg5"
   sodipodi:docname="battery-000-charging.svg"
   inkscape:version="1.2.1 (9c6d41e410, 2022-07-14, custom)"
   xmlns:inkscape="http://www.inkscape.org/namespaces/inkscape"
   xmlns:sodipodi="http://sodipodi.sourceforge.net/DTD/sodipodi-0.dtd"
   xmlns="http://www.w3.org/2000/svg"
   xmlns:svg="http://www.w3.org/2000/svg">
  <sodipodi:namedview
     id="namedview7"
     pagecolor="#ffffff"
     bordercolor="#666666"
     borderopacity="1.0"
     inkscape:showpageshadow="2"
     inkscape:pageopacity="0.0"
     inkscape:pagecheckerboard="0"
     inkscape:deskcolor="#d1d1d1"
     inkscape:document-units="px"
     showgrid="false"
     inkscape:zoom="50.5625"
     inkscape:cx="7.9901112"
     inkscape:cy="8"
     inkscape:window-width="1920"
     inkscape:window-height="1012"
     inkscape:window-x="0"
     inkscape:window-y="0"
     inkscape:window-maximized="1"
     inkscape:current-layer="svg5"
     showguides="false" />
  <defs
     id="defs2">
    <style
       id="current-color-scheme"
       type="text/css">
   .ColorScheme-Text { color:#363636; } .ColorScheme-Highlight { color:#4285f4; } .ColorScheme-NeutralText { color:#ff9800; } .ColorScheme-PositiveText { color:#4caf50; } .ColorScheme-NegativeText { color:#f44336; }
   </style>
  </defs>
  <path
     id="path1017"
     style="fill:currentColor;fill-opacity:1"
     class="ColorScheme-Text"
     d="M 2 0 L 0 4 L 2 4 L 2 7 L 4 3 L 2 3 L 2 0 z M 4.9980469 3 C 4.9986904 3.155098 4.9632515 3.3082213 4.8945312 3.4472656 L 4.6171875 4 L 12 4 C 12.553995 4 13 4.4460036 13 5 L 13 11 C 13 11.553994 12.553995 12 12 12 L 2 12 C 1.4460048 12 1 11.553994 1 11 L 1 7 L 1 5 L 0 5 L 0 11 C 0 12.107994 0.89200633 13 2 13 L 12 13 C 13.107994 13 14 12.107994 14 11 L 14 10.136719 C 15.107995 10.136719 16 9.2447128 16 8.1367188 C 16 7.0287243 15.107995 6.1367187 14 6.1367188 L 14 5 C 14 3.8920066 13.107994 3 12 3 L 4.9980469 3 z " />
</svg>
